!!!!SEGMENT: pl-wnifc--2367-n_mikuli-karol--mazourka-op-4.krn
!!!cenid: 18xx:3885
!!!COM: Mikuli, Karol
!!!COM-rismID: pe106110
!!!CDT: 1819-1897
!!!CNT:
!!!OTL: Mazourka op. 4
!!!PDT: 1860
!!!AGN:
!!!SMS-siglum: PL-Wnifc
!!!SMS-shelfmark: 2367/n
!!!SMS-shelfwork: W
!!!SMS-variant:
!!!SMS-altvar:
!!!NIFC-rismSourceID: 300605259
!!!NIFC-rismChildID: 300605259
!!!NIFC-islandoraID: nifc:211905
!!!URL-pdf-islandora: https://repozytorium.nifc.pl/islandora/object/nifc%3A211905/datastream/PDF/view
!!!URL-scan: https://polish.musicsources.pl/pl/lokalizacje/galeria/druki-muzyczne/16813 @EN{Scan on Polish Music Sources Website} @PL{Skany w portalu Dziedzictwo Muzyki Polskiej w otwartym dostępie}
!!!ONB-nifc:
!!!AIN: 2 piano
!!!key: f
**kern	**dynam	**kern	**dynam
*part2	*part2	*part1	*part1
*staff2	*	*staff1	*
*I"Piano.	*	*I"Piano.	*
*mI"Pianoforte	*	*mI"Pianoforte	*
*I'pf	*	*I'pf	*
*ICklav	*	*ICklav	*
*Ipiano	*	*Ipiano	*
*clefF4	*	*clefG2	*
*k[b-e-a-d-]	*	*k[b-e-a-d-]	*
*f:	*	*f:	*
*M3/4	*	*M3/4	*
=1	=1	=1	=1
!	!	!	!LO:MO:mod=!null:null
.	.	(>8qcc/	p
*^	*	*	*
!	!	!	!	!LO:DY:t= :mod=%s
!	!	!	!	!LO:MO:mod=!LO&colon;DY&colon;ed=
!	!	!	!	!null
4r	2FF\	.	8ff\L)	p
.	.	.	16r	.
.	.	.	(16ff\Jk	.
4A- 4C/	.	.	4cc\)	.
.	.	.	(16qqcc/LL	.
.	.	.	16qqee-/JJ)	.
4G 4BB-/	4r	.	4dd-^\	.
*v	*v	*	*	*
=2	=2	=2	=2
4FF/	.	(2cc\	.
4A- 4C\	.	.	.
4FF/	.	8b-/L	.
.	.	8a-/J	.
=3	=3	=3	=3
.	.	8qg/	.
*^	*	*	*
!LO:MO:mod=!null:null	!	!	!	!
!LO:N:vis=2	!	!	!	!
4EEn/	2EE\	.	8cc\)	.
.	.	.	16r	.
.	.	.	(16cc\	.
4G 4C/	.	.	4g/)	.
.	.	.	(16qqg/LL	.
.	.	.	16qqb-/JJ)	.
4BBn/	4FF\	.	4a-^</	.
=4	=4	=4	=4	=4
!	!LO:SIC:s=4:v	!	!	!
!	!	!	!LO:SIC:s=[(2g/:v	!
4EEn/	4EE\	.	(2g/	.
4G 4C\	4ryyyy	.	.	.
!	!	!	!LO:SIC:s=8g/L]:v	!
4EE-X/	4ryyyy	.	8g/L	.
.	.	.	8g-X/J)	.
*v	*v	*	*	*
=5	=5	=5	=5
.	.	(>16qqf/LL	<
.	.	16qqgn/JJ	.
4DDn/	.	8f/L	.
.	.	8en/	.
4Bn 4A- 4Dn\	.	8f/	.
.	.	8g/	.
4DD/	.	8a-/	.
.	.	8b-X/J	[[
!!LO:LB:g=original	!	!
=6	=6	=6	=6
4EE-/	.	8bn\L)	.
.	.	16r	.
.	.	([<16cc\Jk	.
4e- 4A- 4E-\	.	4.ccc 4.ee- 4.cc\]	sf
(4EE-/	.	.	.
.	.	8aa- 8cc\	.
=7	=7	=7	=7
8E-\)	.	8ggL 8ee-\)	.
8r	.	16r	.
.	.	[16ffJk [16dd-\	.
4d- 4A- 4E-\	.	4ff] 4dd-] 4f^<\	.
4d- 4B- 4E-\	.	4dd- 4g^<\	.
=8	=8	=8	=8
*	*	*^	*
*	*	*	*^	*
4AA-/	.	2.cc^</	4a-\	4ryyyy	.
4c 4A- 4E-\	.	.	4r	4ryyyy	.
4G 4GG\	.	.	4en/	4B-\	.
*	*	*v	*v	*v	*
=9	=9	=9	=9
!	!	!	!LO:MO:mod=!null:null
.	.	(<8qcc/	p
*^	*	*^	*
!	!	!	!	!	!LO:DY:t= :mod=%s
!	!	!	!	!	!LO:MO:mod=!LO&colon;DY&colon;ed=
!	!	!	!	!	!null
4A- 4C/	2FF\	.	8ff/L)	2f\	p
.	.	.	16r	.	.
!	!	!	!LO:SIC:s=(<16ff/Jk:v	!	!
.	.	.	(<16ff'/Jk	.	.
4A- 4C/	.	.	4cc/)	.	.
.	.	.	(16qqcc/LL	.	.
.	.	.	16qqee-/JJ)	.	.
4G 4BB-/	4r	.	4dd-/	4en\	.
*v	*v	*	*	*	*
=10	=10	=10	=10	=10
(4FF/	.	[4cc/	8f\	.
.	.	.	8r	.
!	!	!LO:MO:mod=!null:null	!	!
*	*	*Xtuplet	*	*
!	!	!LO:SIC:s=12cc/L]:v	!	!
4A- 4C\)	.	12cc'/L]	4ryyyy	>
.	.	(12cc'/	.	.
.	.	12bn'/J	.	.
4FF/	.	12b-X'/L	4ryyyy	.
.	.	12an'/	.	.
!	!	!	!	!LO:MO:null:mod=]]
.	.	12a-X'/J	.	.
*	*	*v	*v	*
=11	=11	=11	=11
!	!	!	!LO:MO:null:mod=.
.	.	8qg/	]
*^	*	*	*
4r	2EEn\	.	8cc\L)	.
.	.	.	16r	.
.	.	.	(16cc\Jk	.
4G 4C/	.	.	4g/	.
4BBn/	4FF\	.	4a-^/)	.
*v	*v	*	*	*
!!LO:LB:g=original	!	!
=12	=12	=12	=12
(4EEn/	.	[4g/	.
8G 8C\)	.	(16g/LL]	.
.	.	16cc/)	.
8r	.	(16bn'/	>
.	.	16b-X'/JJ	.
8r	.	16an'/LL	.
.	.	16a-X'/	.
16r	.	16g'/	.
16EE-X/	.	16g-X'/JJ	]]
=13	=13	=13	=13
.	.	16qqf/LL	.
.	.	16qqgn/JJ	.
8DDn/	.	8f/L)	<
8r	.	(8en/	.
4Bn 4A- 4Dn\	.	8f/	.
.	.	8g/	.
8r	.	8a-/	.
!	!	!	!LO:MO:null:mod=[
16r	.	8b-X/J	[[
16DD-X/	.	.	.
=14	=14	=14	=14
8CC/	.	8bn\L)	.
8r	.	16r	.
.	.	[16cc\Jk	.
2a- 2f 2c 2A-\	.	(4.ccc 4.aa- 4.cc\]	>
.	.	8aa- 8cc\	]]
=15	=15	=15	=15
*^	*	*	*
8CC/L	4ryyyy	.	8aa-L 8bn\)	pp
16r	.	.	16r	.
*clefG2	*	*	*	*
[16c/Jk	.	.	(16ggJk 16b\	.
4a-/	2c\]	.	4ddn 4b\	.
4g/	.	.	4een 4b-X\	.
*v	*v	*	*	*
*clefF4	*	*	*
=16	=16	=16	=16
4FF/	.	4ff 4a-\)	.
4a- 4c 4F\	.	4fff 4ccc 4ff\	.
4r	.	4r	.
!!LO:LB:g=original	!	!
=17||	=17||	=17||	=17||
!	!	!	!LO:MO:mod=!null:null
.	.	(>8qee- 8qcc/	p
*^	*	*^	*
!	!	!	!	!	!LO:DY:t= :mod=%s
!	!	!	!	!	!LO:MO:mod=!LO&colon;DY&colon;ed=
!	!	!	!	!	!null
4AAA-/	2ryyyy	.	8ccc\L)	2ryyyy	p
!	!	!	!LO:SIC:s=16rgg:v	!	!
.	.	.	16r	.	.
.	.	.	(16ccc\Jk	.	.
4e- 4A- 4E-\	.	.	4ee- 4cc\)	.	.
(8Bn/L	4A-\	.	(8ff/L	4a-\	.
8c/J)	.	.	24ffL 24a-/	.	.
.	.	.	24gg/	.	.
.	.	.	24ff/JJ	.	.
*v	*v	*	*	*	*
*	*	*v	*v	*
=18	=18	=18	=18
4d- 4E-\	.	8ee-L 8g\)	.
!	!	!LO:TX:i:b:t=leggiero	!
.	.	(8ff 8a-'\	<
4E- 4EE-/	.	8gg 8b-'\	.
.	.	8aa- 8cc'\	.
4G 4E-\	.	8bb- 8dd-'\	.
.	.	8bbnJ 8ddn'\	[[
=19	=19	=19	=19
*^	*	*^	*
!	!	!	!	!	!LO:MO:mod=!null:null
4A- 4AA-\	2ryyyy	.	8cccL 8ee-'\)	2ryyyy	p
!	!	!	!LO:SIC:s=16rgg:v	!	!
.	.	.	16r	.	.
.	.	.	(16ccc\Jk	.	.
4e- 4A- 4E-\	.	.	4ee- 4cc\)	.	.
!	!	!	!	!LO:SIC:s=4a-\:v	!
(8Bn/L	4A-\	.	(8ff/L	4ff 4a-\	.
8c/J)	.	.	24ffL 24a-/	.	.
.	.	.	24gg/	.	.
.	.	.	24ff/JJ	.	.
*v	*v	*	*	*	*
*	*	*v	*v	*
=20	=20	=20	=20
4d- 4E-\	.	8ee-L 8g\)	.
!	!	!LO:TX:b:i:t=leggiero	!
.	.	(8ff 8a-'\	<
4E- 4EE-/	.	8gg 8b-'\	.
.	.	8aa- 8cc'\	.
4G 4E-\	.	8bb- 8dd-'\	.
.	.	8bbnJ 8ddn'\	[[
=21	=21	=21	=21
*	*	*^	*
4A- 4AA-\	.	8cccL 8ee-'\)	4ryyyy	.
!	!	!LO:SIC:s=16rgg:v	!	!
.	.	16r	.	.
.	.	(16ccc\Jk	.	.
!	!	!LO:SIC:s=4ee- 4cc\):v	!LO:SIC:s=4:v	!
4a- 4A-\	.	4ee-/)	4cc\	.
!	!	!LO:SIC:s=(4een\ 4cc:v	!LO:SIC:s=4:v	!
4g-X 4A-\	.	(4een/	4cc\	.
*	*	*v	*v	*
=22	=22	=22	=22
4DD-/	.	8ffL 8dd-\)	.
.	.	16r	.
!	!	!	!LO:MO:mod=!null:null
.	.	([<16ff\Jk	sf
!	!	!	!LO:DY:t= :mod=%s
!	!	!	!LO:MO:mod=!LO&colon;DY&colon;ed=
!	!	!	!null
2f 2d- 2A- 2F\	.	4.ddd- 4.ff^<\]	sf
!LO:TX:t=P:problem: zmiana klucza dopiero w następnym takcie. Klucz wstawiony tutaj, ponieważ VHV nie widzi zmiany klucza w t. 23	!	!	!
.	.	8ccc 8ee-\	.
*clefG2	*	*	*
!!LO:PB:g=original	!	!
=23	=23	=23	=23
.	.	16qqbb-/LL	.
(8qcc 8qc/	.	16qqccc/JJ	.
*clefG2	*	*	*
8gL 8e-/)	.	8bb-L 8dd-\)	.
16r	.	16r	.
16f#XJk [16e-/	.	(16aanJk 16cc\	<
4g 4e-/]	.	4bb- 4dd-\	.
4g 4e-/	.	4bbn 4dd-\)	[[
=24	=24	=24	=24
*	*	*^	*
8a- 8e- 8A-/	.	[2ccc/	2.cc\	.
*clefF4	*	*	*	*
(8AA-\L	.	.	.	.
8E-\	.	.	.	.
8A-\	.	.	.	.
8c\	.	8.ccc/L]	.	.
8e-\J)	.	.	.	.
.	.	16ee-/Jk	.	.
=25	=25	=25	=25	=25
*^	*	*	*	*
(4a-/	2.A-\	.	8ccc/L	4cc\	.
!	!	!	!LO:SIC:s=16raa:v	!	!
.	.	.	16r	.	.
.	.	.	(<16ccc/Jk	.	.
4g/	.	.	4ee-/)	4cc\	.
4g-X/)	.	.	(4een/	4cc\	.
*v	*v	*	*	*	*
*	*	*v	*v	*
=26	=26	=26	=26
4DD-/	.	8.ffL 8.dd-\)	.
.	.	([16ff\Jk	.
!	!	!	!LO:HP:b:t=dim. molto
!	!	!	!LO:MO:null:mod=sf
2f 2d- 2A- 2F^\	.	4.ddd- 4.ff\]	sf >
.	.	8ccc 8ee-\)	>
=27	=27	=27	=27
*	*	*^	*
4GG/	.	(8.bb-M/L	8.dd-\L	.
.	.	16aa-/Jk	16cc\Jk	.
4d- 4G\	.	4gg/	4b-\	.
4dn 4G\	.	4ff/)	4bn\	]]
*	*	*v	*v	*
=28	=28	=28	=28
.	.	(>8qeen 8qcc/	.
*^	*	*	*
4C/	4ryyyy	.	8ccc\L)	pp
.	.	.	16r	.
.	.	.	(16ccc\Jk	.
*clefG2	*	*	*	*
(4g 4en/	2c\	.	[4cc\)	.
*	*	*	*tuplet	*
!	!	!	!LO:TUP:a:problem:klamra łukowa i cyfra	!
4a- 4f/)	.	.	24cc\LL]	.
.	.	.	24dd-\	.
.	.	.	24ee-X\	.
!	!	!	!LO:TUP:a:problem:klamra łukowa i cyfra	!
.	.	.	24ff\	.
.	.	.	24ee-\	.
.	.	.	24dd-\JJ	.
!	!	!	!LO:MO:mod=!null:null	!
*clefF4	*	*	*Xtuplet	*
!!LO:LB:g=original	!	!	!
=29	=29	=29	=29	=29
.	.	.	(>8qcc/	.
4CC/	4ryyyy	.	8ccc\L)	.
.	.	.	16r	.
.	.	.	(16ccc\Jk	.
*clefG2	*	*	*	*
(4g 4en/	2c\	.	[4cc\)	.
4f 4dn/)	.	.	24cc\LL]	.
.	.	.	24ff\	.
.	.	.	24gg\	.
.	.	.	24aa-\	.
.	.	.	24gg\	.
.	.	.	24ff\JJ	.
*clefF4	*	*	*	*
=30	=30	=30	=30	=30
.	.	.	(>8qeen/	.
!	!	!	!	!LO:DY:t=sempre pp
4C/	4ryyyy	.	8ccc\L)	pp
.	.	.	16r	.
.	.	.	(16ccc\Jk	.
*clefG2	*	*	*	*
(4g 4en/	2c\	.	[4cc\)	.
!LO:SIC:s=4a- 4f/):v	!	!	!	!
4f 4dn/)	.	.	24cc\LL]	.
.	.	.	(24dd-\	.
.	.	.	24ee-X\	.
.	.	.	24ff\	.
.	.	.	24ee-\	.
.	.	.	24dd-\JJ)	.
*clefF4	*	*	*	*
=31	=31	=31	=31	=31
.	.	.	(>8qcc/	.
4CC/	4ryyyy	.	8ccc\L)	.
.	.	.	16r	.
.	.	.	(16ccc\Jk	.
*clefG2	*	*	*	*
(4g 4en/	[2c\	.	[4cc\)	.
4f 4dn/)	.	.	24cc\LL]	.
.	.	.	(24ff\	.
.	.	.	24gg\	.
.	.	.	24aa-\	.
.	.	.	24gg\	.
.	.	.	24ff\JJ)	.
*v	*v	*	*	*
=32	=32	=32	=32
.	.	(>8qeen/	.
8g 8en 8c/]	.	8ccc\L)	.
8r	.	16r	.
.	.	(16ccc\Jk	.
*clefF4	*	*	*
!	!	!	!LO:TX:t=cresc. un poco:dur=4e4sq:ext=ud:problem:text with extention lines
4CC/	.	8.cc\L)	<
.	.	(16dd-\Jk	.
*clefG2	*	*	*
[4c/	.	8.ccc\L)	.
.	.	(16ccc\Jk	.
!!LO:LB:g=original	!	!
=33	=33	=33	=33
*^	*	*	*
(4a- 4f/	2.c\]	.	8.ddn\L)	.
.	.	.	(16ee-\Jk	.
4an 4f#X/	.	.	4ccc\)	.
.	.	.	(8qqccc 8qqeen/	.
4b- 4g/)	.	.	4cccc 4ccc\)	.
*clefF4	*	*	*	*
=34	=34	=34	=34	=34
.	.	.	(>8qcc/	.
4r	2FF\	.	8ff\L)	p
.	.	.	16r	.
.	.	.	(16ff\Jk	.
4A- 4C/	.	.	4cc\	.
.	.	.	16qqcc/LL	.
.	.	.	16qqee-/JJ	.
4G 4BB-/	4r	.	4dd-\)	.
*v	*v	*	*	*
=35	=35	=35	=35
4FF/	.	(2cc\	.
4A- 4C\	.	.	.
!	!	!LO:SIC:s=8b-/L:v	!
4FF/	.	8b-\L	.
!	!	!LO:SIC:s=8a-/J:v	!
.	.	8a-\J	.
=36	=36	=36	=36
.	.	8qg/	.
*^	*	*	*
4r	2EEn\	.	8cc\L)	.
.	.	.	16r	.
.	.	.	(16cc\Jk	.
4G 4C/	.	.	4g/	.
.	.	.	16qqg/LL	.
.	.	.	16qqb-/JJ	.
4BBn/	4FF\	.	4a-/	.
*v	*v	*	*	*
=37	=37	=37	=37
4EEn/	.	[2g/	.
4G 4C\	.	.	.
4EE-X/	.	8g/L]	.
.	.	8g-X/J	.
=38	=38	=38	=38
.	.	16qqf/LL	<
.	.	16qqgn/JJ	.
4DDn/	.	16f/KL)	.
.	.	16r	.
.	.	(8en'/	.
4Bn 4A- 4Dn\	.	8f'/	.
.	.	8g'/	.
4DD/	.	8a-'/	.
.	.	8b-X'/J)	[[
=39	=39	=39	=39
4EE-/	.	8bn\L	.
.	.	16r	.
.	.	([<16cc\Jk	.
4e- 4A- 4E-\	.	4.ccc 4.ee- 4.cc\]	.
(<4EE-/	.	.	.
.	.	8aa- 8cc\)	.
!!LO:LB:g=original	!	!
=40	=40	=40	=40
8E-\)	.	8ggL 8ee-\	.
8r	.	16r	.
.	.	[16ffJk [16dd-\	.
4d- 4A- 4E-\	.	4ff] 4dd-] 4f^<\	.
4d- 4B- 4E-\	.	4dd- 4g^<\	.
=41	=41	=41	=41
*	*	*^	*
*	*	*	*^	*
4AA-/	.	2.cc^</	4a-\	4ryyyy	.
4c 4A- 4E-\	.	.	4r	4ryyyy	.
4G 4GG/	.	.	4en/	4B-\	.
*	*	*v	*v	*v	*
=42	=42	=42	=42
.	.	(<8qcc/	.
*^	*	*^	*
4A- 4C/	2FF\	.	8ff/L)	2f\	.
.	.	.	16r	.	.
.	.	.	(<16ff/Jk	.	.
4A- 4C/	.	.	4cc/)	.	.
.	.	.	(16qqcc/LL	.	.
.	.	.	16qqee-/JJ)	.	.
4G 4BB-/	4r	.	4dd-/	4en\	.
*v	*v	*	*	*	*
=43	=43	=43	=43	=43
4FF/	.	[4cc/	8f\	.
.	.	.	8ryy	.
*	*	*tuplet	*	*
!	!	!LO:MO:mod=!null:null	!	!
*	*	*rscale:2	*	*
4A- 4C\	.	(44%2cc\LL]	2ryyyy	.
.	.	44%2ff\	.	.
.	.	44%2een\	.	.
.	.	44%2ee-X\	.	.
.	.	44%2ddn\	.	.
.	.	44%2dd-X\	.	>
4FF/	.	.	.	.
.	.	44%2cc\	.	.
.	.	44%2bn\	.	.
.	.	44%2b-X\	.	.
!	!	!	!	!LO:MO:null:mod=]]
.	.	44%2an\	.	]
.	.	44%2a-X\JJ	.	.
!	!	!LO:MO:mod=!null:null	!	!
*	*	*rscale:1	*	*
*	*	*v	*v	*
=44	=44	=44	=44
.	.	8qg/	.
*^	*	*	*
4r	2EEn\	.	8cc\L)	.
.	.	.	16r	.
.	.	.	(16cc\Jk	.
4G 4C/	.	.	4g/)	.
.	.	.	(16qqg/LL	.
.	.	.	16qqb-/JJ	.
4BBn/	4FF\	.	4a-/)	.
*v	*v	*	*	*
!!LO:LB:g=original	!	!
=45	=45	=45	=45
4EEn/	.	[4g/	.
8G 8C\	.	(72%4g/LL]	.
.	.	72%4g/	.
.	.	72%4cc/	.
8r	.	.	.
.	.	72%4bn/JJ	.
.	.	72%4b-X/LL	.
8.r	.	.	.
.	.	72%4an/	.
.	.	72%4a-X/	.
.	.	72%4g/	.
16EE-	.	.	.
.	.	72%4g-X/JJ	.
=46	=46	=46	=46
4DDn/	.	16f/KL)	.
.	.	16r	.
.	.	(<8en'/	.
4Bn 4A- 4Dn\	.	8f'/	<
.	.	8g'/	.
8.r	.	8a-'/	.
.	.	8b-X'/J	[[
16DD-X/	.	.	.
=47	=47	=47	=47
4CC/	.	8bn`\L)	.
.	.	16r	.
.	.	[<16cc\Jk	.
2a- 2f 2c 2A-\	.	(4.ccc 4.aa- 4.cc\]	.
.	.	8aa- 8cc\	.
=48	=48	=48	=48
*^	*	*	*
8CC/L	4ryyyy	.	8aa-L 8bn\)	>
*clefG2	*	*	*	*
16r	.	.	16r	.
[16c/Jk	.	.	(16ggJk 16b\	.
4a-/	2c\]	.	4ddn 4b\	] pp
4g/	.	.	4een 4b-X\	.
*v	*v	*	*	*
*clefF4	*	*	*
=49	=49	=49	=49
4FF/	.	4ff 4a-\)	.
4f 4c 4F\	.	4fff 4ccc 4ff\	.
4r	.	4r	.
!!LO:PB:g=original	!	!
!LO:MO:mod=*kcancel:null	!	!	!
*null	*	*	*
=50||	=50||	=50||	=50||
*k[b-]	*	*k[b-]	*
!	!	!LO:TX:a:i:t=semplice	!
(<8qBBn/	.	.	.
*^	*	*	*
2.C/)	2.FF\	.	4r	pp
.	.	.	(8qBn/	.
.	.	.	[2f [2c [2A/)	.
=51	=51	=51	=51	=51
(<8qBBn/	.	.	.	.
2.C/)	2.FF\	.	4f] 4c] 4A/]	.
.	.	.	(8qBn/	.
.	.	.	2f 2c 2A/)	.
*v	*v	*	*	*
=52	=52	=52	=52
!	!	!LO:TX:a:i:t=espressivo	!
(4c 4F\	.	(4a 4f/	.
4.c 4.A\	.	4.cc 4.f^/	.
8c 8F\	.	8a 8f/	.
=53	=53	=53	=53
.	.	(8qa/	.
8cL 8A\	.	8gL 8e/)	.
[8cJ [8A\	.	[8f/J	.
2c] 2A\])	.	2f/])	.
=54	=54	=54	=54
(<8qBBn/	.	.	.
*^	*	*	*
2.C/)	2.FF\	.	4r	pp
.	.	.	(8qBn/	.
.	.	.	[2f [2c [2A/)	.
=55	=55	=55	=55	=55
(<8qBBn/	.	.	.	.
2.C/)	2.FF\	.	4f] 4c] 4A/]	.
.	.	.	(8qBn/	.
.	.	.	2f 2c 2A/)	.
*v	*v	*	*	*
!!LO:LB:g=original	!	!
=56	=56	=56	=56
4D 4DD/	.	(8.f/L	<
.	.	16f/Jk	.
!	!	!LO:TX:b:i:t=rit.	!
4d 4A 4F\	.	4.ff 4.dd\	[
4AA 4AAA/	.	.	.
.	.	8ee 8cc\	.
.	.	8qqf/	.
=57	=57	=57	=57
.	.	[16qqf/LL	.
.	.	16qqeeJJ 16qqcc/	.
*	*	*^	*
8BB-L 8BBB-/	.	8ddL 8b-/	[2f\]	>
[8FFJ [8FFF/	.	[8ccJ [8a/	.	.
2FF] 2FFF/]	.	2cc] 2a/])	.	.
!	!	!	!	!LO:MO:null:mod=]]
.	.	.	8.f\L]	]
.	.	.	[16e^>\Jk	.
=58	=58	=58	=58	=58
*^	*	*	*	*
!	!	!	!LO:MO:mod=!LO&colon;TX&colon;a&colon;i&colon;t=a tempo	!	!
!	!	!	!LO:TX:a:t=a tempo	!	!
4EE/	4ryyyy	.	8.ccL 8.a/	2.e\_	.
.	.	.	(16ccJk 16a/	.	.
4e/	[2E\	.	4ee 4cc/	.	.
4d#X/	.	.	4cc 4a/	.	.
*	*	*	*v	*v	*
=59	=59	=59	=59	=59
.	.	.	16qqbn/LL	.
.	.	.	16qqcc/JJ	.
4dn/	8.E\L]	.	8bL 8g#X 8e/])	.
.	.	.	16r	.
.	[16E\Jk	.	(>16aJk 16f#X/	.
4d/	4E\]	.	4b 4g#/	.
4c/	4A\	.	4cc 4a/	.
*v	*v	*	*	*
=60	=60	=60	=60
8CC/	.	16aKL 16fn/)	.
.	.	16r	.
!	!	!	!LO:MO:null:mod=<
8r	.	8c< 8A</	.
!	!	!	!LO:MO:null:mod=.
(4.c^\	.	8f 8c/	<
.	.	8a 8f/	.
.	.	8cc 8a/	.
8C/)	.	8ffJ 8a/	[[
=61	=61	=61	=61
8c\L	.	8aaL 8cc\	.
16r	.	16r	.
(16eJk 16c\	.	(16ggJk 16b-\	.
2f 2F\)	.	2ff 2a\)	.
*clefG2	*	*	*
!!LO:LB:g=original	!	!
=62:|!	=62:|!	=62:|!	=62:|!
8.fL 8.d/	.	8.ffL 8.dd\	f
16fJk 16d/	.	16ffJk 16dd\	.
4.a 4.f/	.	4.aa 4.ff\	.
8f 8d/	.	8ff 8dd\	.
=63	=63	=63	=63
.	.	(16qqee/LL	.
.	.	16qqff/JJ)	.
8eL 8A/	.	8eeL 8cc#X\	.
8fJ 8d/	.	8ddJ 8bn\	.
4e 4A/	.	4ee 4cc#\	.
4f 4d/	.	4ff 4dd\	.
=64	=64	=64	=64
8.dL 8.B-/	.	8.ddL 8.b-X\	.
16dJk 16B-/	.	16ddJk 16b-\	.
4.f 4.d/	.	4.ff 4.dd\	.
8d 8B-/	.	8dd 8b-\	.
*clefF4	*	*	*
=65	=65	=65	=65
.	.	(16qqcc/LL	.
.	.	16qqdd/JJ)	.
8cL 8F\	.	8ccL 8a/	.
8dJ 8B-\	.	8b-J 8g/	.
4c 4F\	.	4cc 4a\	.
4d 4F#X\	.	4dd 4a\	.
=66	=66	=66	=66
8.dL 8.G\	.	8.b-L 8.g/	.
16dJk 16Fn\	.	16b-Jk 16g/	.
4.c 4.E\	.	4.cc 4.g/	.
8c 8F\	.	8a 8f/	.
=67	=67	=67	=67
8.B-L 8.D\	.	8.b-L 8.f/	.
16B-Jk 16E\	.	16gJk 16e/	.
4A 4C#X\	.	4a 4e/	.
4A 4D\	.	4f 4d/	.
!!LO:LB:g=original	!	!
=68	=68	=68	=68
*	*	*^	*
2E 2BB-/	.	8gM/L	2.d\	.
.	.	8f/J	.	.
.	.	4.g/	.	.
4E 4BB-/	.	.	.	.
.	.	8g#X/	.	.
=69	=69	=69	=69	=69
2E 2AA/	.	8g#X/L	2.c#X\	.
!	!	!LO:TUP:b:problem:klamra łukowa	!	!
.	.	24a/L	.	.
.	.	24cc/	.	.
.	.	24b-/JJ	.	.
.	.	4a/	.	.
4E 4AA/	.	4e/	.	.
=70	=70	=70	=70	=70
!	!	!LO:TUP:b:problem:klamra łukowa	!	!
2E 2BB-/	.	20g/LL	2.d\	.
.	.	20g/	.	.
.	.	20a/	.	.
.	.	20g/	.	.
.	.	20f#X/JJ	.	.
.	.	4.g/	.	.
4E 4BB-/	.	.	.	.
.	.	8g#X/	.	.
=71	=71	=71	=71	=71
2.E 2.AA/	.	(8g#X^/L	2.c#X\	.
.	.	24a/L	.	.
.	.	24ee/	.	.
.	.	24cc#X/JJ)	.	.
!	!	!LO:TUP:b:problem:klamra łukowa	!	!
.	.	6b-/	.	.
.	.	6a/	.	.
.	.	6e/	.	.
=72	=72	=72	=72	=72
2E 2BB-/	.	(12gn/L	2d\	.
.	.	12d#X/	.	.
.	.	12e/	.	.
.	.	12f/	.	.
.	.	12f#X/	.	.
.	.	12g/	.	.
!	!	!	!LO:SIC:s=4d\:v	!
4E 4BB-/	.	12g#X/	4d#\	.
.	.	12ee/)	.	.
.	.	24r	.	.
.	.	24g#/Jk	.	.
*	*	*v	*v	*
!!LO:LB:g=original	!	!
=73	=73	=73	=73
4E 4AA/	.	8.aL 8.c#X/	.
.	.	(16a/Jk	.
4r	.	4..aa\)	.
4f 4d 4A\	.	.	.
.	.	(16a/	.
=74	=74	=74	=74
4e 4c#X 4A 4G\	.	8.aa\L)	pp
.	.	(16a\Jk	.
4AAA/	.	4..aa\)	.
4d 4A 4F\	.	.	.
.	.	(16a/	.
=75	=75	=75	=75
4c#X 4A 4E\	.	8.aa\L)	.
.	.	(16a\Jk	.
4AAA/	.	4..aa\)	.
[4Bn 4A 4F [4D\	.	.	.
.	.	(16a/	.
=76	=76	=76	=76
2B] 2A 2F 2D\]	.	[2aa\)	.
4AAA/	.	8.aa\L]	.
.	.	(16a\Jk	.
=77	=77	=77	=77
4c#X 4A 4E 4C#X\	.	[2aa\)	.
4AAA/	.	.	.
4r	.	16aa\LL]	.
.	.	(16a\	.
.	.	16aa\)	.
.	.	[16aa\JJ	.
=78	=78	=78	=78
(<8qBBn/	.	.	.
*^	*	*	*
2.C/)	2.FF\	.	8aaa 8aa\]	pp
.	.	.	8r	.
.	.	.	(8qqBn/	.
.	.	.	[2f [2c [2A/)	.
!!LO:PB:g=original	!	!	!
=79	=79	=79	=79	=79
(<8qBBn/	.	.	.	.
2.C/)	2.FF\	.	4f] 4c] 4A/]	.
.	.	.	(<8qqBn/	.
.	.	.	2f 2c 2A/)	.
*v	*v	*	*	*
=80	=80	=80	=80
(4c 4F\	.	(>4a 4f/	p
4.c 4.A\	.	4.cc 4.f^/	.
8c 8F\	.	8a 8f/	.
=81	=81	=81	=81
.	.	8qa/	.
8cL 8A\	.	8gL 8e/	.
[8cJ [8A\	.	[8f/J	.
2c] 2A\])	.	2f/])	.
=82	=82	=82	=82
(<8qBBn/	.	.	.
*^	*	*	*
2.C/)	2.FF\	.	4r	pp
.	.	.	(<8qBn/	.
.	.	.	[2f [2c [2A/)	.
=83	=83	=83	=83	=83
8qBBn/	.	.	.	.
2.C/	2.FF\	.	4f] 4c] 4A/]	.
.	.	.	(<8qBn/	.
.	.	.	2f 2c 2A/)	.
*v	*v	*	*	*
=84	=84	=84	=84
4DD/	.	(8.f/L	p <
.	.	16f/Jk	.
!	!	!LO:TX:b:i:t=rit.	!
4d 4A 4F\	.	4.ff 4.dd\	.
4AA 4AAA/	.	.	.
.	.	8ee 8cc\	.
.	.	8qf/	[[
!!LO:LB:g=original	!	!
=85	=85	=85	=85
.	.	[16qqf/LL	>
.	.	16qqeeJJ 16qqcc/	.
*	*	*^	*
8BB-L 8BBB-/	.	8ddL 8b-/	[2f\]	.
[8FFJ [8FFF/	.	[8ccJ [<8a/	.	.
2FF] 2FFF/]	.	2cc] 2a/])	.	.
.	.	.	8.f\L]	.
.	.	.	[16e^>\Jk	]
=86	=86	=86	=86	=86
*^	*	*	*	*
!	!	!	!LO:MO:mod=!LO&colon;TX&colon;a&colon;i&colon;t=a tempo	!	!
!	!	!	!LO:TX:B:a:t=a tempo	!	!
4ryyyy	4EE/	.	8ccL 8a/	2.e\_	.
.	.	.	16r	.	.
.	.	.	(16ccJk 16a/	.	.
4e/	[>2E\	.	4ee 4cc/	.	.
4d#X/	.	.	4cc 4a/	.	.
*	*	*	*v	*v	*
=87	=87	=87	=87	=87
.	.	.	16qqbn/LL	.
.	.	.	16qqcc/JJ	.
!	!	!	!LO:SIC:s=8bnyL 8g#X 8e/]):v	!
4dn/	8.E\L]	.	8bL 8g#X 8e/])	.
.	.	.	16r	.
.	[>16E\Jk	.	(>16aJk 16f#X/	.
4d/	4E\]	.	4b 4g#/	.
4c/	4A\	.	4cc 4a/	.
*v	*v	*	*	*
=88	=88	=88	=88
8CC/	.	16aKL 16fn/)	.
.	.	16r	.
!	!	!	!LO:MO:null:mod=<
8r	.	8c 8A/	.
!	!	!	!LO:MO:null:mod=.
(4.c^\	.	8f 8c/	<
.	.	8a 8f/	.
.	.	8cc 8a/	.
!	!	!	!LO:MO:null:mod=[[
8C/)	.	8ffJ 8a/	.
=89	=89	=89	=89
!	!	!	!LO:MO:null:mod=.
8c\L	.	8aaL 8cc\	[
16r	.	16r	.
(16cJk 16A\	.	(16ggJk 16b-\	.
2f 2F\)	.	2ff 2a\)	.
!!LO:LB:g=original	!	!
=90||	=90||	=90||	=90||
*k[b-e-a-d-]	*	*k[b-e-a-d-]	*
!	!	!	!LO:MO:mod=!null:null
.	.	(8qcc/	p
*^	*	*	*
!	!	!	!	!LO:DY:t= :mod=%s
!	!	!	!	!LO:MO:mod=!LO&colon;DY&colon;ed=
!	!	!	!	!null
4r	2FF\	.	8ff\L)	p
.	.	.	16r	.
.	.	.	(16ff\Jk	.
4A- 4C/	.	.	4cc\)	.
.	.	.	(16qqcc/LL	.
.	.	.	16qqee-/JJ)	.
4G 4BB-/	4r	.	4dd-^\	.
*v	*v	*	*	*
=91	=91	=91	=91
4FF/	.	&(2cc\	.
4A- 4C\	.	.	.
4FF/	.	8b-/L	.
.	.	8a-/J	.
=92	=92	=92	=92
.	.	(<8qg/	.
*^	*	*	*
!LO:MO:mod=!null:null	!	!	!	!
!LO:N:vis=2	!	!	!	!
4EEn/	2EE\)	.	8cc\L&)	.
.	.	.	16r	.
.	.	.	(16cc\Jk	.
4G 4C\	.	.	4g/)	.
.	.	.	(16qqg/LL	.
.	.	.	16qqb-/JJ)	.
4BBn/	4FF\	.	4a-^>/	.
=93	=93	=93	=93	=93
!	!	!	!LO:SIC:s=[(2g/:v	!
!	!LO:SIC:s=4:v	!	!	!
4EEn/	4EE\yy	.	(2g/	.
4G 4C\	4ryyyy	.	.	.
!	!	!	!LO:SIC:s=8g/L]:v	!
4EE-X/	4ryyyy	.	8g/L	.
.	.	.	8g-X/J)	.
*v	*v	*	*	*
=94	=94	=94	=94
.	.	(>16qqf/LL	<
.	.	16qqgn/JJ	.
4DDn/	.	8f/L	.
.	.	8en/	.
4Bn 4A- 4Dn\	.	8f/	.
.	.	8g/	.
4DD/	.	8a-/	.
.	.	8b-X/J	[[
!!LO:LB:g=original	!	!
=95	=95	=95	=95
4EE-/	.	8bn\L)	.
.	.	16r	.
.	.	([<16cc\Jk	.
4e- 4A- 4E-\	.	4.ccc 4.ee- 4.cc\]	sf
(4EE-/	.	.	.
.	.	8aa- 8cc\	.
=96	=96	=96	=96
8E-\)	.	8ggL 8ee-\)	.
8r	.	16r	.
.	.	[16ffJk [16dd-\	.
4d- 4A- 4E-\	.	4ff] 4dd-] 4f^<\	.
4d- 4B- 4E-\	.	4dd- 4g^<\	.
=97	=97	=97	=97
*	*	*^	*
4AA-/	.	2.cc^</	4a-\	.
4c 4A- 4E-\	.	.	4r	.
!LO:SIC:s=4G 4GG/:v	!	!	!	!
!	!	!	!LO:SIC:s=4en 4B-\:v	!
4G 4GG\	.	.	4en 4B-/	.
=98	=98	=98	=98	=98
.	.	(<8qcc/	.	.
*^	*	*	*	*
4A- 4C/	2FF\	.	8ff/L)	2f\	p
.	.	.	16r	.	.
!	!	!	!LO:SIC:s=(16ff/Jk:v	!	!
.	.	.	(16ff'/Jk	.	.
4A- 4C/	.	.	4cc/)	.	.
.	.	.	(>16qqdd-/LL	.	.
.	.	.	16qqee-/JJ	.	.
4G 4BB-/	4r	.	4dd-/)	4en\	.
*v	*v	*	*	*	*
=99	=99	=99	=99	=99
(4FF/	.	[4cc/	8f\	.
.	.	.	8r	.
!	!	!LO:MO:mod=!null:null	!	!
*	*	*Xtuplet	*	*
!	!	!LO:SIC:s=12cc/L]:v	!	!
4A- 4C\)	.	12cc'/L]	4ryyyy	>
.	.	(<12cc'/	.	.
.	.	12bn'/J	.	.
4FF/	.	12b-X'/L	4ryyyy	.
.	.	12an'/	.	.
!	!	!	!	!LO:MO:null:mod=]]
.	.	12a-X'/J	.	.
*	*	*v	*v	*
=100	=100	=100	=100
!	!	!	!LO:MO:null:mod=.
.	.	8qg/	]
*^	*	*	*
4r	2EEn\	.	8cc\L)	.
.	.	.	16r	.
.	.	.	(16cc\Jk	.
4G 4C/	.	.	4g/	.
4BBn/	4FF\	.	4a-^/)	.
*v	*v	*	*	*
!!LO:LB:g=original	!	!
=101	=101	=101	=101
(4EEn/	.	[4g/	.
8G 8C\)	.	16g/LL]	.
.	.	(16cc/	.
8r	.	16bn'/	>
.	.	16b-X'/JJ	.
8r	.	16an'/LL	.
.	.	16a-X'/	.
16r	.	16g'/	.
16EE-X/	.	16g-X'/JJ	]]
=102	=102	=102	=102
.	.	16qqf/LL	<
.	.	16qqgn/JJ	.
8DDn/	.	8f'/L)	.
8r	.	(8en/	.
4Bn 4A- 4Dn\	.	8f/	.
.	.	8g/	.
8r	.	8a-/	.
16r	.	8b-X/J	[[
16DD-X/	.	.	.
=103	=103	=103	=103
8CC/	.	8bn\L)	.
8r	.	16r	.
.	.	[<16cc\Jk	.
2a- 2f 2c 2A-\	.	(4.ccc 4.aa- 4.cc\]	>
.	.	8aa- 8cc\	]]
=104	=104	=104	=104
*^	*	*	*
8CC/L	4ryyyy	.	8aa-L 8bn'\)	pp
16r	.	.	16r	.
*clefG2	*	*	*	*
[16c/Jk	.	.	(16ggJk 16b\	.
4a-/	2c\]	.	4ddn 4b\	.
4g/	.	.	4een 4b-X\	.
*v	*v	*	*	*
*clefF4	*	*	*
=105	=105	=105	=105
4FF/	.	4ff 4a-\)	.
8a- 8c 8F\	.	8fff 8ccc 8ff\	.
8r	.	8r	.
4r	.	4r	.
!!LO:PB:g=original	!	!
=106||	=106||	=106||	=106||
.	.	(>8qee- 8qcc/	.
*^	*	*^	*
4AAA-/	2ryyyy	.	8ccc\L)	2ryyyy	p
!	!	!	!LO:SIC:s=16rgg:v	!	!
.	.	.	16r	.	.
.	.	.	(16ccc\Jk	.	.
4e- 4A- 4E-\	.	.	4ee- 4cc\)	.	.
(8Bn/L	4A-\	.	(8ff/L	4a-\	.
8c/J)	.	.	24ffL 24a-/	.	.
.	.	.	24gg/	.	.
.	.	.	24ff/JJ	.	.
*v	*v	*	*	*	*
*	*	*v	*v	*
=107	=107	=107	=107
!	!	!	!LO:MO:null:mod=<
4d- 4E-\	.	8ee-L 8g\)	.
!	!	!LO:TX:b:i:t=leggiero	!
!	!	!	!LO:MO:null:mod=.
.	.	(8ff 8a-'\	<
4E- 4EE-/	.	8gg 8b-'\	.
.	.	8aa- 8cc'\	.
(4G 4E-\	.	8bb- 8dd-'\	.
.	.	8bbnJ 8ddn'\	[[
=108	=108	=108	=108
*^	*	*^	*
4A- 4AA-\)	2ryyyy	.	8cccL 8ee-\)	2ryyyy	.
!	!	!	!LO:SIC:s=16rgg:v	!	!
.	.	.	16r	.	.
.	.	.	(16ccc\Jk	.	.
4e- 4A- 4E-\	.	.	4ee- 4cc\)	.	.
(8Bn/L	4A-\	.	(8ff/L	4a-\	.
8c/J)	.	.	24ffL 24a-/	.	.
.	.	.	24gg/	.	.
.	.	.	24ff/JJ	.	.
*v	*v	*	*	*	*
*	*	*v	*v	*
=109	=109	=109	=109
!	!	!	!LO:MO:null:mod=<
4d- 4E-\	.	8ee-L 8g\)	.
!	!	!LO:MO:mod=!LO&colon;TX&colon;b&colon;i&colon;t=leggiero	!
!	!	!LO:TX:b:i:t=legg.	!
!	!	!	!LO:MO:null:mod=.
.	.	(8ff 8a-'\	<
4E- 4EE-/	.	8gg 8b-'\	.
.	.	8aa- 8cc'\	.
4G 4E-\	.	8bb- 8dd-'\	.
.	.	8bbnJ 8ddn'\	[[
!!LO:LB:g=original	!	!
=110	=110	=110	=110
4A- 4AA-\	.	8cccL 8ee-\)	.
.	.	16r	.
.	.	(16ccc\Jk	.
4a- 4A-\	.	4ee- 4cc\)	.
4g-X 4A-\	.	(4een 4cc\	.
=111	=111	=111	=111
4DD-/	.	8ffL 8dd-\)	.
.	.	16r	.
.	.	([16ff\Jk	.
2f 2d- 2A- 2F\	.	4.ddd- 4.ff^\]	sf
.	.	8ccc 8ee-\	.
!LO:TX:t=P:problem: zmiana klucza dopiero w następnym takcie. Klucz wstawiony tutaj, ponieważ VHV nie widzi zmiany klucza w t. 112	!	!	!
*clefG2	*	*	*
=112	=112	=112	=112
.	.	16qqbb-/LL	.
(8qcc 8qc/	.	16qqccc/JJ	.
*clefG2	*	*	*
8gL 8e-/)	.	8bb-L 8dd-\)	.
16r	.	16r	.
16f#XJk [16e-/	.	(16aanJk 16cc\	<
4g 4e-/]	.	4bb- 4dd-\	.
!	!	!	!LO:MO:null:mod=[
4g 4e-/	.	4bbn 4dd-\)	[[
=113	=113	=113	=113
*	*	*^	*
8a- 8e- 8A-/	.	[2ccc/	2.cc\	.
*clefF4	*	*	*	*
(8AA-\L	.	.	.	.
8E-\	.	.	.	.
8A-\	.	.	.	.
8c\	.	8.ccc/L]	.	.
8e-\J)	.	.	.	.
.	.	16ee-/Jk	.	.
!!LO:LB:g=original	!	!	!
=114	=114	=114	=114	=114
*^	*	*	*	*
(4a-/	2.A-\	.	8ccc/L	4cc\	.
.	.	.	16r	.	.
.	.	.	(16ccc/Jk	.	.
4g/	.	.	4ee- 4cc\)	4ryyyy	.
4g-X/)	.	.	(4een 4cc\	4ryyyy	.
*v	*v	*	*	*	*
*	*	*v	*v	*
=115	=115	=115	=115
4DD-/	.	8.ffL 8.dd-\)	.
.	.	([<16ff\Jk	.
2f 2d- 2A- 2F^\	.	4.ddd- 4.ff^\]	sf
.	.	8ccc 8ee-\)	>
=116	=116	=116	=116
!	!LO:HP:a:t=dim. molto	!	!
!	!LO:MO:null:mod=.	!	!
4GG/	>	(8.bb-M 8.dd-\L	.
.	.	16aa-Jk 16cc\	.
4d- 4G\	.	4gg 4b-\	.
4dn 4G\	.	4ff 4bn\)	]]
=117	=117	=117	=117
.	.	(>8qqeen 8qqcc/	.
*^	*	*	*
!	!	!	!	!LO:DY:t=pp sempre
4C/	4ryyyy	.	8ccc\L)	pp
.	.	.	16r	.
.	.	.	(16ccc\Jk	.
*clefG2	*	*	*tuplet	*
(4g 4en/	2c\	.	[4cc\)	.
!	!	!	!LO:TUP:a:problem:klamra łukowa i cyfra 3	!
4a- 4f/)	.	.	24cc\LL]	.
.	.	.	24dd-\	.
.	.	.	24ee-X\	.
!	!	!	!LO:TUP:a:problem:klamra łukowa i cyfra 3	!
.	.	.	24ff\	.
.	.	.	24ee-\	.
.	.	.	24dd-\JJ	.
*clefF4	*	*	*	*
!!LO:LB:g=original	!	!	!	!
=118	=118	=118	=118	=118
.	.	.	(>8qqcc/	.
4CC/	4ryyyy	.	8ccc\L)	.
.	.	.	16r	.
.	.	.	(16ccc\Jk	.
!	!	!	!LO:MO:mod=!null:null	!
*clefG2	*	*	*Xtuplet	*
(4g 4en/	2c\	.	[4cc\)	.
4f 4dn/)	.	.	24cc\LL]	.
.	.	.	(24ff\	.
.	.	.	24gg\	.
.	.	.	24aa-\	.
.	.	.	24gg\	.
.	.	.	24ff\JJ)	.
*clefF4	*	*	*	*
=119	=119	=119	=119	=119
.	.	.	(>8qqeen/	.
4C/	4ryyyy	.	8ccc\L)	.
.	.	.	16r	.
.	.	.	(16ccc\Jk	.
*clefG2	*	*	*	*
(<4g 4en/	2c\	.	[4cc\)	.
4a- 4f/)	.	.	24cc\LL]	.
.	.	.	(24dd-\	.
.	.	.	24ee-X\	.
.	.	.	24ff\	.
.	.	.	24ee-\	.
.	.	.	24dd-\JJ)	.
*clefF4	*	*	*	*
=120	=120	=120	=120	=120
.	.	.	(>8qqcc/	.
4CC/	4ryyyy	.	8ccc\L)	.
.	.	.	16r	.
.	.	.	(16ccc\Jk	.
*clefG2	*	*	*	*
(4g 4en/	[2c\	.	[4cc\)	.
4f 4dn/)	.	.	24cc\LL]	.
.	.	.	(24ff\	.
.	.	.	24gg\	.
.	.	.	24aa-\	.
.	.	.	24gg\	.
.	.	.	24ff\JJ)	.
*v	*v	*	*	*
!!LO:LB:g=original	!	!	!
=121	=121	=121	=121
.	.	(>8qqeen/	.
8g 8en 8c/]	.	8ccc\L)	.
8r	.	16r	.
.	.	(16ccc\Jk	.
*clefF4	*	*	*
4CC/	.	8.cc\L)	.
.	.	(16dd-\Jk	.
*clefG2	*	*	*
[4c/	.	8.ccc\L)	.
.	.	(16ccc\Jk	.
=122	=122	=122	=122
*^	*	*	*
(4a- 4f/	2.c\]	.	8.ddn\L)	.
.	.	.	(16ee-\Jk	.
4an 4f#X/	.	.	4ccc\)	.
.	.	.	(>16qqeen/LL	.
.	.	.	16qqccc/JJ	.
4b- 4g/)	.	.	4cccc 4ccc\)	.
*clefF4	*	*	*	*
=123	=123	=123	=123	=123
.	.	.	(>8qcc/	.
4r	2FF\	.	8ff\L)	mf
.	.	.	16r	.
.	.	.	(16ff\Jk	.
4A- 4C/	.	.	4cc\)	.
.	.	.	(>16qqcc/LL	.
.	.	.	16qqee-/JJ	.
4G 4BB-/	4r	.	4dd-^<\)	.
*v	*v	*	*	*
=124	=124	=124	=124
!	!	!	!LO:TX:t=cresc.:dur=10e6s2h:ext=ud:problem:text with extention lines
4FF/	.	(2cc\	<
4A- 4C\	.	.	.
4FF/	.	8b-/L	.
.	.	8a-/J	.
!!LO:PB:g=original	!	!	!
=125	=125	=125	=125
.	.	8qg/	.
*^	*	*	*
4r	2EEn\	.	8cc\L)	.
.	.	.	16r	.
.	.	.	(16cc\Jk	.
4G 4C/	.	.	4g/	.
.	.	.	16qqg/LL	.
.	.	.	16qqb-/JJ	.
4BBn/	4FF\	.	4a-^/)	.
*v	*v	*	*	*
=126	=126	=126	=126
4EEn/	.	([2g/	.
4G 4C\	.	.	.
4EE-X/	.	8g/L]	.
.	.	8g-X/J	.
=127	=127	=127	=127
.	.	16qqf/LL	.
.	.	16qqgn/JJ	.
4DDn/	.	16f/KL)	.
.	.	16r	.
.	.	(8en/	.
4Bn 4A- 4Dn\	.	8f'/	.
.	.	8g'/	.
4DD/	.	8a-'/	.
.	.	8b-X'/J)	.
=128	=128	=128	=128
*	*	*tuplet	*
!	!	!LO:TUP:a:problem:klamra łukowa	!
4EE-/	.	20bn\LL	.
.	.	20r	.
.	.	20cc\	.
.	.	20ccc\	<
.	.	20cc\JJ	.
*	*	*8va	*
2e- 2A- 2E-^\	.	4.cccc 4.eee-\	.
!	!	!	!LO:MO:null:mod=[[
.	.	8aaa- 8ccc\	[
!!LO:LB:g=original	!	!	!
=129	=129	=129	=129
*	*	*^	*
!LO:TUP:a:problem:klamra łukowa	!	!LO:TUP:a:problem:klamra łukowa	!	!
6EE-/	.	24gggKL 24eee-\	4ryyyy	.
!	!	!LO:SIC:s=24rddd:v	!	!
.	.	24r	.	.
.	.	12fff 12ddd-\	.	.
!	!	!	!LO:MO:mod=!null:null	!
*	*	*X8va	*Xtuplet	*
12E-\	.	12ff#X\J	.	.
!LO:TUP:a:problem:klamra łukowa	!	!	!	!
12B-\L	.	6ddd-/	12gg\L	.
!	!	!	!LO:N:acc=n-	!
12d-\	.	.	12ff-X\	.
12g\J	.	12ccc/	12ee-\J	.
8r	.	6bb-/	12ddn\L	.
.	.	.	12ee-\	.
8E-\	.	.	.	.
.	.	12bbn/	12dd-X\J	.
*	*	*v	*v	*
=130	=130	=130	=130
4A- 4AA-\	.	[4ccc [4cc\	.
*	*	*tuplet	*
!	!	!LO:TUP:a:problem:klamra łukowa	!
4c 4A- 4E-\	.	12ccc]L 12cc\]	<
.	.	12bbn 12bn\	.
.	.	[12cccJ [12cc\	.
8CL 8FF\	.	16ccc]LL 16cc\]	.
.	.	16eee- 16ee-\	.
8B-J 8En\	.	16dddn 16ddn\	.
.	.	16ddd-XJJ 16dd-X\	[[
=131	=131	=131	=131
.	.	(>8qccc 8qcc/	.
*^	*	*	*
!LO:SIC:s=4A- 4F 4FF/:v	!	!	!	!
4A- 4F 4FF\	4ryyyy	.	8fffL 8ff\)	f
.	.	.	16r	.
.	.	.	16fffJk 16ff\	.
4F 4AA-/	[2FF\	.	4ccc 4cc\	.
.	.	.	(>8qeee-/	.
4G 4BB-/	.	.	4ddd- 4dd-\)	.
!!LO:LB:g=original	!	!	!	!
=132	=132	=132	=132	=132
4A- 4C/	4FF\]	.	[4ccc [4cc\	.
!	!	!	!LO:MO:mod=!null:null	!
*	*	*	*Xtuplet	*
4FF 4FFF/	4ryyyy	.	12ccc]L 12cc\]	.
.	.	.	(12ccc 12cc'\	.
.	.	.	12bbnJ 12bn'\	.
!	!	!	!LO:SIC:s=12bb-L 12b-'\:v	!
4A- 4C 4FF/	4ryyyy	.	12bbL 12b'\	.
.	.	.	12aan 12an'\	.
.	.	.	12aa-XJ 12a-X'\)	.
*v	*v	*	*	*
=133	=133	=133	=133
.	.	(>8qgg 8qg/	.
4G 4C 4EEn/	.	8cccL 8cc\)	.
.	.	16r	.
.	.	16cccJk 16cc\	.
4EE/	.	4gg 4g\	.
.	.	(>8qbb-/	.
4F 4BBn 4EE/	.	4aa- 4a-\)	.
=134	=134	=134	=134
4G 4C 4EEn/	.	4.gg 4.g\	.
4EE 4EEEn/	.	.	.
.	.	8ggL 8g\	.
4EE-X 4EEE-X/	.	8gg 8g\	.
.	.	8gg-XJ 8g-X\	.
=135	=135	=135	=135
.	.	(16qqff/LL	.
.	.	16qqgg/JJ	.
8DDn 8DDDn/	.	8ffL 8f\)	.
8r	.	8een 8en\	.
4Bn 4A- 4Dn\	.	8ff 8f\	.
.	.	8ggn 8gn\	.
(4DD-X 4DDD-X/	.	8aa- 8a-\	.
.	.	8bb-XJ 8b-X\	.
!!LO:LB:g=original	!	!	!
=136	=136	=136	=136
8CC 8CCC/)	.	32bbnKLL 32bn\	.
.	.	32r	.
.	.	16cc\	.
8r	.	16ccc 16aa-\	.
.	.	16ccc\JJ	.
*	*	*8va	*
4d- 4A- 4F\	.	8cccc 8aaa-\	.
*	*	*X8va	*
.	.	8r	.
8r	.	[4ccc [4cc\	sf
8C 8CC/	.	.	.
=137	=137	=137	=137
4C-X 4CC-X/	.	32ccc]KLL 32cc\]	.
.	.	32r	.
.	.	(16dd-\	.
.	.	16ddd- 16aa-\	.
.	.	16ddd-\JJ)	.
*	*	*8va	*
4d- 4F 4D-\	.	8dddd- 8aaa-\	.
*	*	*X8va	*
.	.	8r	.
8r	.	[4dd- [4d-\	sf
8C- 8CC-/	.	.	.
=138	=138	=138	=138
4BB- 4BBB-/	.	32dd-]KLL 32d-\]	.
.	.	32r	.
.	.	(16d-\	.
.	.	16dd- 16g-X\	.
.	.	16dd-\JJ	.
*	*	*8va	*
4d- 4G-X 4D-\	.	8dddd- 8ggg-X\)	.
*	*	*X8va	*
.	.	8r	.
4BB- 4BBB-/	.	16r	.
.	.	(16en\LL	.
.	.	16een 16gn\	.
.	.	16ee\JJ	.
=139	=139	=139	=139
4d- 4Gn 4BB-\	.	8eeen 8ggn\)	.
.	.	8r	.
4AA- 4AAA-/	.	16r	.
.	.	(16f\LL	.
.	.	16ff 16cc\	.
.	.	16ff\JJ	.
!LO:SIC:s=8c 8F 8C 8AA-\:v	!	!	!
8c 8F 8C 8AA-/	.	8fff 8ccc\)	.
16r;	.	16r;	.
16c 16C\	.	16r	.
!!LO:LB:g=original	!	!	!
=140	=140	=140	=140
8d-L 8D-\	.	4r	ff
16r	.	.	.
(16d-Jk 16D-\	.	.	.
2En 2EEn^>/	.	4r	.
.	.	(4g 4d- 4B-^>/	.
=141	=141	=141	=141
8FL 8FF\)	.	8a- 8c 8A-/)	.
16r	.	8r	.
(16BnJk 16BBn\	.	.	.
2D- 2DD-^>/	.	4r	.
.	.	(4ff 4bn 4f^>\	.
=142	=142	=142	=142
8CL 8CC\)	.	8cc 8a-\)	.
16r	.	8r	.
(16cJk 16C\	.	.	.
4..CC 4..CCC/)	.	4r	.
.	.	8r	.
.	.	16r	.
(16CC 16CCC/	.	16een 16b- 16g\	.
=143	=143	=143	=143
8FFF/)	.	8ff 8a- 8f\	.
8r	.	8r	.
!LO:MO:mod=!null:null	!	!	!
!LO:TX:b:B:t=Fine.	!	!	!
8ff: 8a-: 8c: 8A-: 8C: 8FF:\	.	8fff: 8ccc: 8ff: 8cc:\	.
!LO:MO:mod=!LO&colon;TX&colon;a&colon;i&colon;t=Fine	!	!	!
!null	!	!	!
8r	.	8r	.
==	==	==	==
*-	*-	*-	*-
!!!system-decoration: {(s1,s2)}
!!!RDF**kern: > = above
!!!RDF**kern: < = below
!!!filter-modern: sic -sq | shed -e "s/LO:DY:(a|b|rj)/LO:dy:$1/L" | shed -e "s/TX(.*):t=P:/tx$1:t=P:/LG" | modori -m | shed -e "s/yy//" | shed -k -e "s/\(y([^y])/($1/" | shed -e "s/^(\d+[\/\\]right)/$1yy/I; s/^(\d+[\/\\]left)/$1yy/I" | shed -k -e "s/[<>]//g" | shed -k -e "s/:TUP:/:tup:/L"
!!!ENC: Berenika Jozajtis
!!!END: 2022-07-22
!!!ENC: Natalia Wrzos
!!!END: 2022-08-17
!!!EED-modern: Antoni Szymański
!!!END-modern: 2022-08-27
!!!YEC: Copyright 2022 Narodowy Instytut Fryderyka Chopina (https://polishscores.org)
!!!YEM: License CC-BY-4.0 (https://creativecommons.org/licenses/by/4.0)
